X:0069
M:6/8
L:1/8
Q:3/8=120
K:G
E2C C2G|F2D D2c |B/c/dB cAF |G3  G3 :|
d2f f2g|f2d ecA |d2B    A2g |f2d e^cA|
a2f g2e|f2d e^cA|Bcd    ed^c|d3  D2B |
c2c cac|B2B BgB |A2A    ABc |dBG AFD |
E2C C2G|F2D D2c |B/c/dB cAF |G3  G3 :|

